modules/stroke-7/icons/less.svg

<?xml version="1.0" encoding="utf-8"?>
<!-- Generated by IcoMoon.io -->
<!DOCTYPE svg PUBLIC "-//W3C//DTD SVG 1.1//EN" "http://www.w3.org/Graphics/SVG/1.1/DTD/svg11.dtd">
<svg version="1.1" xmlns="http://www.w3.org/2000/svg" xmlns:xlink="http://www.w3.org/1999/xlink" width="32" height="32" viewBox="0 0 32 32">
<g id="icomoon-ignore">
</g>
<path d="M16 2.672c-7.362 0-13.328 5.966-13.328 13.328s5.966 13.328 13.328 13.328c7.362 0 13.328-5.966 13.328-13.328s-5.966-13.328-13.328-13.328zM16 28.262c-6.761 0-12.262-5.501-12.262-12.262s5.501-12.262 12.262-12.262c6.761 0 12.262 5.501 12.262 12.262s-5.501 12.262-12.262 12.262z" fill="#000000"></path>
<path d="M9.105 15.467h13.826v1.066h-13.826v-1.066z" fill="#000000"></path>
</svg>

<svg xmlns="http://www.w3.org/2000/svg" width="32" height="32"><path d="M16 2.672C8.638 2.672 2.672 8.638 2.672 16S8.638 29.328 16 29.328c7.362 0 13.328-5.966 13.328-13.328S23.362 2.672 16 2.672zm0 25.59C9.239 28.262 3.738 22.761 3.738 16S9.239 3.738 16 3.738 28.262 9.239 28.262 16 22.761 28.262 16 28.262z"/><path d="M9.105 15.467h13.826v1.066H9.105v-1.066z"/></svg>
